icons/modern/sagittarius.svg

<svg width="32" height="32" viewBox="0 0 32 32" fill="none" xmlns="http://www.w3.org/2000/svg">
<g filter="url(#filter0_ii_18590_1250)">
<rect x="2.30133" y="1.6875" width="27.875" height="27.875" rx="3.6" fill="url(#paint0_linear_18590_1250)"/>
<rect x="2.30133" y="1.6875" width="27.875" height="27.875" rx="3.6" fill="url(#paint1_radial_18590_1250)"/>
</g>
<g filter="url(#filter1_f_18590_1250)">
<path d="M28.4888 4.1875V27.0625" stroke="url(#paint2_linear_18590_1250)" stroke-width="1.5" stroke-linecap="round"/>
</g>
<g filter="url(#filter2_f_18590_1250)">
<path d="M5.7652 3.5H27.5464" stroke="url(#paint3_linear_18590_1250)" stroke-width="1.5" stroke-linecap="round"/>
</g>
<g filter="url(#filter3_f_18590_1250)">
<path d="M25.6483 7.11001C25.6483 7.08001 25.6483 7.05001 25.6483 7.01001C25.6483 6.99871 25.6483 6.99061 25.6465 6.98208C25.6433 6.9669 25.6395 6.95181 25.6373 6.93645C25.6371 6.935 25.6368 6.93355 25.6365 6.93208C25.6333 6.9169 25.6288 6.90167 25.624 6.88693C25.6213 6.87877 25.6183 6.87086 25.6183 6.86001C25.6183 6.85001 25.6083 6.83001 25.6083 6.82001C25.6083 6.80534 25.6029 6.79605 25.5961 6.78425C25.5908 6.77494 25.5841 6.7661 25.5804 6.75601C25.5789 6.75208 25.5777 6.74795 25.5763 6.74402C25.5726 6.73393 25.5657 6.72518 25.5618 6.71517C25.5575 6.70434 25.5555 6.69718 25.5483 6.69001C25.5383 6.68001 25.5383 6.66001 25.5283 6.65001C25.5263 6.64796 25.5242 6.64548 25.5222 6.64275C25.5088 6.62406 25.5001 6.59916 25.4868 6.58039V6.58039C25.4814 6.57278 25.4764 6.56562 25.4714 6.55771C25.4637 6.54543 25.456 6.53772 25.4483 6.53001C25.4383 6.52001 25.4283 6.51001 25.4183 6.50001C25.3783 6.45001 25.3283 6.40001 25.2783 6.36001C25.2751 6.35683 25.272 6.35364 25.2688 6.35078C25.2572 6.34041 25.2409 6.33662 25.228 6.32809C25.2228 6.32471 25.2179 6.32133 25.2125 6.31795C25.2033 6.31229 25.1945 6.30606 25.1856 6.29994C25.176 6.2933 25.165 6.28666 25.1583 6.28001C25.1556 6.27724 25.152 6.27447 25.1481 6.27191C25.1308 6.26049 25.1078 6.25463 25.0887 6.24653V6.24653C25.081 6.24324 25.0746 6.23792 25.0667 6.2348C25.0583 6.23142 25.0513 6.22953 25.0432 6.2265C25.0331 6.22273 25.0244 6.21577 25.0143 6.21208C25.0104 6.21064 25.0063 6.20939 25.0023 6.20795C24.9922 6.20426 24.9835 6.1973 24.9735 6.19353C24.9688 6.1918 24.9645 6.19043 24.9602 6.18895C24.9454 6.18399 24.9303 6.17896 24.9156 6.17409C24.909 6.17194 24.9027 6.17001 24.8983 6.17001C24.8783 6.17001 24.8683 6.16001 24.8483 6.16001C24.8283 6.16001 24.8183 6.15001 24.7983 6.15001C24.7783 6.15001 24.7683 6.14001 24.7483 6.14001C24.7183 6.14001 24.6883 6.14001 24.6583 6.14001H24.6483H15.6483C15.0983 6.14001 14.6483 6.59001 14.6483 7.14001C14.6483 7.69001 15.0983 8.14001 15.6483 8.14001H21.9963C22.0855 8.14001 22.1301 8.2479 22.0669 8.31085L13.719 16.6296C13.68 16.6685 13.6167 16.6684 13.5777 16.6294L11.3583 14.41C10.9683 14.02 10.3383 14.02 9.94832 14.41C9.55832 14.8 9.55832 15.43 9.94832 15.82L12.1676 18.0393C12.2067 18.0784 12.2067 18.1417 12.1676 18.1807L6.94832 23.4C6.55832 23.79 6.55832 24.42 6.94832 24.81C7.13832 25.01 7.38832 25.11 7.64832 25.11C7.90832 25.11 8.15832 25.01 8.35832 24.82L13.5776 19.5909C13.6167 19.5517 13.68 19.5517 13.7191 19.5908L15.9383 21.81C16.1383 22.01 16.3883 22.11 16.6483 22.11C16.9083 22.11 17.1583 22.01 17.3583 21.82C17.7483 21.43 17.7483 20.8 17.3583 20.41L15.129 18.1807C15.09 18.1417 15.09 18.0784 15.129 18.0393L23.4776 9.69073C23.5406 9.62773 23.6483 9.67235 23.6483 9.76144V16.11C23.6483 16.66 24.0983 17.11 24.6483 17.11C25.1983 17.11 25.6483 16.66 25.6483 16.11V7.11001Z" fill="#6A4EBE"/>
</g>
<g filter="url(#filter4_ii_18590_1250)">
<path d="M25.6483 7.11001C25.6483 7.08001 25.6483 7.05001 25.6483 7.01001C25.6483 6.99871 25.6483 6.99061 25.6465 6.98208C25.6433 6.9669 25.6395 6.95181 25.6373 6.93645C25.6371 6.935 25.6368 6.93355 25.6365 6.93208C25.6333 6.9169 25.6288 6.90167 25.624 6.88693C25.6213 6.87877 25.6183 6.87086 25.6183 6.86001C25.6183 6.85001 25.6083 6.83001 25.6083 6.82001C25.6083 6.80534 25.6029 6.79605 25.5961 6.78425C25.5908 6.77494 25.5841 6.7661 25.5804 6.75601C25.5789 6.75208 25.5777 6.74795 25.5763 6.74402C25.5726 6.73393 25.5657 6.72518 25.5618 6.71517C25.5575 6.70434 25.5555 6.69718 25.5483 6.69001C25.5383 6.68001 25.5383 6.66001 25.5283 6.65001C25.5263 6.64796 25.5242 6.64548 25.5222 6.64275C25.5088 6.62406 25.5001 6.59916 25.4868 6.58039V6.58039C25.4814 6.57278 25.4764 6.56562 25.4714 6.55771C25.4637 6.54543 25.456 6.53772 25.4483 6.53001C25.4383 6.52001 25.4283 6.51001 25.4183 6.50001C25.3783 6.45001 25.3283 6.40001 25.2783 6.36001C25.2751 6.35683 25.272 6.35364 25.2688 6.35078C25.2572 6.34041 25.2409 6.33662 25.228 6.32809C25.2228 6.32471 25.2179 6.32133 25.2125 6.31795C25.2033 6.31229 25.1945 6.30606 25.1856 6.29994C25.176 6.2933 25.165 6.28666 25.1583 6.28001C25.1556 6.27724 25.152 6.27447 25.1481 6.27191C25.1308 6.26049 25.1078 6.25463 25.0887 6.24653V6.24653C25.081 6.24324 25.0746 6.23792 25.0667 6.2348C25.0583 6.23142 25.0513 6.22953 25.0432 6.2265C25.0331 6.22273 25.0244 6.21577 25.0143 6.21208C25.0104 6.21064 25.0063 6.20939 25.0023 6.20795C24.9922 6.20426 24.9835 6.1973 24.9735 6.19353C24.9688 6.1918 24.9645 6.19043 24.9602 6.18895C24.9454 6.18399 24.9303 6.17896 24.9156 6.17409C24.909 6.17194 24.9027 6.17001 24.8983 6.17001C24.8783 6.17001 24.8683 6.16001 24.8483 6.16001C24.8283 6.16001 24.8183 6.15001 24.7983 6.15001C24.7783 6.15001 24.7683 6.14001 24.7483 6.14001C24.7183 6.14001 24.6883 6.14001 24.6583 6.14001H24.6483H15.6483C15.0983 6.14001 14.6483 6.59001 14.6483 7.14001C14.6483 7.69001 15.0983 8.14001 15.6483 8.14001H21.9963C22.0855 8.14001 22.1301 8.2479 22.0669 8.31085L13.719 16.6296C13.68 16.6685 13.6167 16.6684 13.5777 16.6294L11.3583 14.41C10.9683 14.02 10.3383 14.02 9.94832 14.41C9.55832 14.8 9.55832 15.43 9.94832 15.82L12.1676 18.0393C12.2067 18.0784 12.2067 18.1417 12.1676 18.1807L6.94832 23.4C6.55832 23.79 6.55832 24.42 6.94832 24.81C7.13832 25.01 7.38832 25.11 7.64832 25.11C7.90832 25.11 8.15832 25.01 8.35832 24.82L13.5776 19.5909C13.6167 19.5517 13.68 19.5517 13.7191 19.5908L15.9383 21.81C16.1383 22.01 16.3883 22.11 16.6483 22.11C16.9083 22.11 17.1583 22.01 17.3583 21.82C17.7483 21.43 17.7483 20.8 17.3583 20.41L15.129 18.1807C15.09 18.1417 15.09 18.0784 15.129 18.0393L23.4776 9.69073C23.5406 9.62773 23.6483 9.67235 23.6483 9.76144V16.11C23.6483 16.66 24.0983 17.11 24.6483 17.11C25.1983 17.11 25.6483 16.66 25.6483 16.11V7.11001Z" fill="#FCF2FF"/>
</g>
<defs>
<filter id="filter0_ii_18590_1250" x="2.30133" y="0.6875" width="29.875" height="28.875" filterUnits="userSpaceOnUse" color-interpolation-filters="sRGB">
<feFlood flood-opacity="0" result="BackgroundImageFix"/>
<feBlend mode="normal" in="SourceGraphic" in2="BackgroundImageFix" result="shape"/>
<feColorMatrix in="SourceAlpha" type="matrix" values="0 0 0 0 0 0 0 0 0 0 0 0 0 0 0 0 0 0 127 0" result="hardAlpha"/>
<feOffset dx="2" dy="-1"/>
<feGaussianBlur stdDeviation="1.5"/>
<feComposite in2="hardAlpha" operator="arithmetic" k2="-1" k3="1"/>
<feColorMatrix type="matrix" values="0 0 0 0 0.298039 0 0 0 0 0.235294 0 0 0 0 0.6 0 0 0 1 0"/>
<feBlend mode="normal" in2="shape" result="effect1_innerShadow_18590_1250"/>
<feColorMatrix in="SourceAlpha" type="matrix" values="0 0 0 0 0 0 0 0 0 0 0 0 0 0 0 0 0 0 127 0" result="hardAlpha"/>
<feOffset dy="-1"/>
<feGaussianBlur stdDeviation="1.5"/>
<feComposite in2="hardAlpha" operator="arithmetic" k2="-1" k3="1"/>
<feColorMatrix type="matrix" values="0 0 0 0 0.352941 0 0 0 0 0.211765 0 0 0 0 0.709804 0 0 0 1 0"/>
<feBlend mode="normal" in2="effect1_innerShadow_18590_1250" result="effect2_innerShadow_18590_1250"/>
</filter>
<filter id="filter1_f_18590_1250" x="25.7388" y="1.4375" width="5.5" height="28.375" filterUnits="userSpaceOnUse" color-interpolation-filters="sRGB">
<feFlood flood-opacity="0" result="BackgroundImageFix"/>
<feBlend mode="normal" in="SourceGraphic" in2="BackgroundImageFix" result="shape"/>
<feGaussianBlur stdDeviation="1" result="effect1_foregroundBlur_18590_1250"/>
</filter>
<filter id="filter2_f_18590_1250" x="3.0152" y="0.75" width="27.2812" height="5.5" filterUnits="userSpaceOnUse" color-interpolation-filters="sRGB">
<feFlood flood-opacity="0" result="BackgroundImageFix"/>
<feBlend mode="normal" in="SourceGraphic" in2="BackgroundImageFix" result="shape"/>
<feGaussianBlur stdDeviation="1" result="effect1_foregroundBlur_18590_1250"/>
</filter>
<filter id="filter3_f_18590_1250" x="5.65582" y="5.14001" width="20.9925" height="20.97" filterUnits="userSpaceOnUse" color-interpolation-filters="sRGB">
<feFlood flood-opacity="0" result="BackgroundImageFix"/>
<feBlend mode="normal" in="SourceGraphic" in2="BackgroundImageFix" result="shape"/>
<feGaussianBlur stdDeviation="0.5" result="effect1_foregroundBlur_18590_1250"/>
</filter>
<filter id="filter4_ii_18590_1250" x="6.25582" y="5.74001" width="19.7925" height="19.77" filterUnits="userSpaceOnUse" color-interpolation-filters="sRGB">
<feFlood flood-opacity="0" result="BackgroundImageFix"/>
<feBlend mode="normal" in="SourceGraphic" in2="BackgroundImageFix" result="shape"/>
<feColorMatrix in="SourceAlpha" type="matrix" values="0 0 0 0 0 0 0 0 0 0 0 0 0 0 0 0 0 0 127 0" result="hardAlpha"/>
<feOffset dx="-0.4" dy="0.4"/>
<feGaussianBlur stdDeviation="0.375"/>
<feComposite in2="hardAlpha" operator="arithmetic" k2="-1" k3="1"/>
<feColorMatrix type="matrix" values="0 0 0 0 0.913725 0 0 0 0 0.886275 0 0 0 0 0.968627 0 0 0 1 0"/>
<feBlend mode="normal" in2="shape" result="effect1_innerShadow_18590_1250"/>
<feColorMatrix in="SourceAlpha" type="matrix" values="0 0 0 0 0 0 0 0 0 0 0 0 0 0 0 0 0 0 127 0" result="hardAlpha"/>
<feOffset dx="0.4" dy="-0.4"/>
<feGaussianBlur stdDeviation="0.2"/>
<feComposite in2="hardAlpha" operator="arithmetic" k2="-1" k3="1"/>
<feColorMatrix type="matrix" values="0 0 0 0 1 0 0 0 0 0.988235 0 0 0 0 1 0 0 0 1 0"/>
<feBlend mode="normal" in2="effect1_innerShadow_18590_1250" result="effect2_innerShadow_18590_1250"/>
</filter>
<linearGradient id="paint0_linear_18590_1250" x1="16.2388" y1="5.26201" x2="16.2388" y2="38.5147" gradientUnits="userSpaceOnUse">
<stop stop-color="#9865EE"/>
<stop offset="1" stop-color="#7764C6"/>
</linearGradient>
<radialGradient id="paint1_radial_18590_1250" cx="0" cy="0" r="1" gradientUnits="userSpaceOnUse" gradientTransform="translate(27.9576 3.78125) rotate(136.771) scale(2.14444 2.50466)">
<stop stop-color="#BB8DFF"/>
<stop offset="1" stop-color="#BB8DFF" stop-opacity="0"/>
</radialGradient>
<linearGradient id="paint2_linear_18590_1250" x1="28.9888" y1="4.1875" x2="28.9888" y2="27.0625" gradientUnits="userSpaceOnUse">
<stop stop-color="#AE7EFF"/>
<stop offset="1" stop-color="#8777D6"/>
</linearGradient>
<linearGradient id="paint3_linear_18590_1250" x1="28.7027" y1="3.75002" x2="3.17145" y2="3.75002" gradientUnits="userSpaceOnUse">
<stop stop-color="#A672FF"/>
<stop offset="1" stop-color="#9A6CEB"/>
</linearGradient>
</defs>
</svg>

<svg width="32" height="32" fill="none" xmlns="http://www.w3.org/2000/svg"><g filter="url(#a)"><rect x="2.301" y="1.688" width="27.875" height="27.875" rx="3.6" fill="url(#b)"/><rect x="2.301" y="1.688" width="27.875" height="27.875" rx="3.6" fill="url(#c)"/></g><g filter="url(#d)"><path d="M28.489 4.188v22.875" stroke="url(#e)" stroke-width="1.5" stroke-linecap="round"/></g><g filter="url(#f)"><path d="M5.765 3.5h21.781" stroke="url(#g)" stroke-width="1.5" stroke-linecap="round"/></g><g filter="url(#h)"><path d="M25.648 7.11v-.1c0-.011 0-.02-.002-.028l-.009-.046v-.004a.441.441 0 0 0-.013-.045c-.003-.008-.006-.016-.006-.027 0-.01-.01-.03-.01-.04 0-.015-.005-.024-.012-.036-.005-.01-.012-.018-.016-.028l-.004-.012c-.003-.01-.01-.019-.014-.029-.005-.01-.007-.018-.014-.025-.01-.01-.01-.03-.02-.04a.068.068 0 0 1-.006-.007c-.013-.019-.022-.044-.035-.063a.502.502 0 0 1-.016-.022c-.007-.013-.015-.02-.023-.028l-.03-.03a.927.927 0 0 0-.14-.14l-.01-.01c-.01-.01-.027-.013-.04-.022l-.016-.01-.026-.018c-.01-.007-.021-.013-.028-.02a.062.062 0 0 0-.01-.008c-.017-.012-.04-.017-.06-.025-.007-.004-.013-.01-.021-.012l-.024-.009c-.01-.003-.019-.01-.029-.014l-.012-.004-.028-.014-.014-.005a13.699 13.699 0 0 0-.062-.019c-.02 0-.03-.01-.05-.01-.02 0-.03-.01-.05-.01-.02 0-.03-.01-.05-.01h-9.1c-.55 0-1 .45-1 1s.45 1 1 1h6.348a.1.1 0 0 1 .07.17l-8.347 8.32a.1.1 0 0 1-.141 0l-2.22-2.22a.996.996 0 1 0-1.41 1.41l2.22 2.22a.1.1 0 0 1 0 .14l-5.22 5.22a.996.996 0 0 0 0 1.41c.19.2.44.3.7.3.26 0 .51-.1.71-.29l5.22-5.23a.1.1 0 0 1 .141 0l2.22 2.22c.2.2.45.3.71.3.26 0 .51-.1.71-.29a.996.996 0 0 0 0-1.41l-2.23-2.23a.1.1 0 0 1 0-.14l8.349-8.35a.1.1 0 0 1 .17.071v6.349c0 .55.45 1 1 1s1-.45 1-1v-9Z" fill="#6A4EBE"/></g><g filter="url(#i)"><path d="M25.648 7.11v-.1c0-.011 0-.02-.002-.028l-.009-.046v-.004a.441.441 0 0 0-.013-.045c-.003-.008-.006-.016-.006-.027 0-.01-.01-.03-.01-.04 0-.015-.005-.024-.012-.036-.005-.01-.012-.018-.016-.028l-.004-.012c-.003-.01-.01-.019-.014-.029-.005-.01-.007-.018-.014-.025-.01-.01-.01-.03-.02-.04a.068.068 0 0 1-.006-.007c-.013-.019-.022-.044-.035-.063a.502.502 0 0 1-.016-.022c-.007-.013-.015-.02-.023-.028l-.03-.03a.927.927 0 0 0-.14-.14l-.01-.01c-.01-.01-.027-.013-.04-.022l-.016-.01-.026-.018c-.01-.007-.021-.013-.028-.02a.062.062 0 0 0-.01-.008c-.017-.012-.04-.017-.06-.025-.007-.004-.013-.01-.021-.012l-.024-.009c-.01-.003-.019-.01-.029-.014l-.012-.004-.028-.014-.014-.005a13.699 13.699 0 0 0-.062-.019c-.02 0-.03-.01-.05-.01-.02 0-.03-.01-.05-.01-.02 0-.03-.01-.05-.01h-9.1c-.55 0-1 .45-1 1s.45 1 1 1h6.348a.1.1 0 0 1 .07.17l-8.347 8.32a.1.1 0 0 1-.141 0l-2.22-2.22a.996.996 0 1 0-1.41 1.41l2.22 2.22a.1.1 0 0 1 0 .14l-5.22 5.22a.996.996 0 0 0 0 1.41c.19.2.44.3.7.3.26 0 .51-.1.71-.29l5.22-5.23a.1.1 0 0 1 .141 0l2.22 2.22c.2.2.45.3.71.3.26 0 .51-.1.71-.29a.996.996 0 0 0 0-1.41l-2.23-2.23a.1.1 0 0 1 0-.14l8.349-8.35a.1.1 0 0 1 .17.071v6.349c0 .55.45 1 1 1s1-.45 1-1v-9Z" fill="#FCF2FF"/></g><defs><filter id="a" x="2.301" y=".688" width="29.875" height="28.875" filterUnits="userSpaceOnUse" color-interpolation-filters="sRGB"><feFlood flood-opacity="0" result="BackgroundImageFix"/><feBlend in="SourceGraphic" in2="BackgroundImageFix" result="shape"/><feColorMatrix in="SourceAlpha" values="0 0 0 0 0 0 0 0 0 0 0 0 0 0 0 0 0 0 127 0" result="hardAlpha"/><feOffset dx="2" dy="-1"/><feGaussianBlur stdDeviation="1.5"/><feComposite in2="hardAlpha" operator="arithmetic" k2="-1" k3="1"/><feColorMatrix values="0 0 0 0 0.298039 0 0 0 0 0.235294 0 0 0 0 0.6 0 0 0 1 0"/><feBlend in2="shape" result="effect1_innerShadow_18590_1250"/><feColorMatrix in="SourceAlpha" values="0 0 0 0 0 0 0 0 0 0 0 0 0 0 0 0 0 0 127 0" result="hardAlpha"/><feOffset dy="-1"/><feGaussianBlur stdDeviation="1.5"/><feComposite in2="hardAlpha" operator="arithmetic" k2="-1" k3="1"/><feColorMatrix values="0 0 0 0 0.352941 0 0 0 0 0.211765 0 0 0 0 0.709804 0 0 0 1 0"/><feBlend in2="effect1_innerShadow_18590_1250" result="effect2_innerShadow_18590_1250"/></filter><filter id="d" x="25.739" y="1.438" width="5.5" height="28.375" filterUnits="userSpaceOnUse" color-interpolation-filters="sRGB"><feFlood flood-opacity="0" result="BackgroundImageFix"/><feBlend in="SourceGraphic" in2="BackgroundImageFix" result="shape"/><feGaussianBlur stdDeviation="1" result="effect1_foregroundBlur_18590_1250"/></filter><filter id="f" x="3.015" y=".75" width="27.281" height="5.5" filterUnits="userSpaceOnUse" color-interpolation-filters="sRGB"><feFlood flood-opacity="0" result="BackgroundImageFix"/><feBlend in="SourceGraphic" in2="BackgroundImageFix" result="shape"/><feGaussianBlur stdDeviation="1" result="effect1_foregroundBlur_18590_1250"/></filter><filter id="h" x="5.656" y="5.14" width="20.992" height="20.97" filterUnits="userSpaceOnUse" color-interpolation-filters="sRGB"><feFlood flood-opacity="0" result="BackgroundImageFix"/><feBlend in="SourceGraphic" in2="BackgroundImageFix" result="shape"/><feGaussianBlur stdDeviation=".5" result="effect1_foregroundBlur_18590_1250"/></filter><filter id="i" x="6.256" y="5.74" width="19.793" height="19.77" filterUnits="userSpaceOnUse" color-interpolation-filters="sRGB"><feFlood flood-opacity="0" result="BackgroundImageFix"/><feBlend in="SourceGraphic" in2="BackgroundImageFix" result="shape"/><feColorMatrix in="SourceAlpha" values="0 0 0 0 0 0 0 0 0 0 0 0 0 0 0 0 0 0 127 0" result="hardAlpha"/><feOffset dx="-.4" dy=".4"/><feGaussianBlur stdDeviation=".375"/><feComposite in2="hardAlpha" operator="arithmetic" k2="-1" k3="1"/><feColorMatrix values="0 0 0 0 0.913725 0 0 0 0 0.886275 0 0 0 0 0.968627 0 0 0 1 0"/><feBlend in2="shape" result="effect1_innerShadow_18590_1250"/><feColorMatrix in="SourceAlpha" values="0 0 0 0 0 0 0 0 0 0 0 0 0 0 0 0 0 0 127 0" result="hardAlpha"/><feOffset dx=".4" dy="-.4"/><feGaussianBlur stdDeviation=".2"/><feComposite in2="hardAlpha" operator="arithmetic" k2="-1" k3="1"/><feColorMatrix values="0 0 0 0 1 0 0 0 0 0.988235 0 0 0 0 1 0 0 0 1 0"/><feBlend in2="effect1_innerShadow_18590_1250" result="effect2_innerShadow_18590_1250"/></filter><linearGradient id="b" x1="16.239" y1="5.262" x2="16.239" y2="38.515" gradientUnits="userSpaceOnUse"><stop stop-color="#9865EE"/><stop offset="1" stop-color="#7764C6"/></linearGradient><linearGradient id="e" x1="28.989" y1="4.188" x2="28.989" y2="27.063" gradientUnits="userSpaceOnUse"><stop stop-color="#AE7EFF"/><stop offset="1" stop-color="#8777D6"/></linearGradient><linearGradient id="g" x1="28.703" y1="3.75" x2="3.171" y2="3.75" gradientUnits="userSpaceOnUse"><stop stop-color="#A672FF"/><stop offset="1" stop-color="#9A6CEB"/></linearGradient><radialGradient id="c" cx="0" cy="0" r="1" gradientUnits="userSpaceOnUse" gradientTransform="matrix(-1.56249 1.46876 -1.71548 -1.82495 27.958 3.781)"><stop stop-color="#BB8DFF"/><stop offset="1" stop-color="#BB8DFF" stop-opacity="0"/></radialGradient></defs></svg>
